X: 20605
T: John Of Bon Accord
R: reel
M: 4/4
K: Amajor
c2Bc eAAB|c/c/B cd eAAB|d2cd fddc|dcde fdBA|
cABc eAAB|cBcd ecBA|dcdf edcB|1 cA A/A/A A2AB:|2 cAAB A2cd||
|:e2^de fece|a/a/a ga fece|f2ef aefa|bagf edcd|
e2^de fece|a2ga fece|dBcd Bcde|cAAB A2cd:|

